X: 40661
T: Top Of The Maol, The
R: polka
M: 2/4
K: Edorian
|:D|"Em"E2 EG/A/|BA FE|"D"D2 DF/G/|AF ED|
"Em"E2 EG/A/|BA FA|"G" B/c/d/B/ "D"AF|"Em" E2 E:|
|:A|"Em"Be ed/e/|fe dA|"G"Bc de|dB BA|
"Em"Be ed/e/|fe dA|"G" B/c/d/B/ "D"AF|"Em"E2 E:|

